austria/municipalities/70601.svg

<?xml version="1.0" encoding="UTF-8"?>
<!DOCTYPE svg PUBLIC "-//W3C//DTD SVG 1.1//EN" "http://www.w3.org/Graphics/SVG/1.1/DTD/svg11.dtd">
<svg xmlns="http://www.w3.org/2000/svg" version="1.1" width="166px" height="192px" style="shape-rendering:geometricPrecision; text-rendering:geometricPrecision; image-rendering:optimizeQuality; fill-rule:evenodd; clip-rule:evenodd" xmlns:xlink="http://www.w3.org/1999/xlink">
<g><path style="opacity:1" fill="#0d0908" d="M -0.5,-0.5 C 54.8333,-0.5 110.167,-0.5 165.5,-0.5C 165.5,39.5 165.5,79.5 165.5,119.5C 157.045,159.621 132.712,183.621 92.5,191.5C 85.5,191.5 78.5,191.5 71.5,191.5C 30.925,182.925 6.92504,158.259 -0.5,117.5C -0.5,78.1667 -0.5,38.8333 -0.5,-0.5 Z"/></g>
<g><path style="opacity:1" fill="#fdfdfd" d="M 16.5,4.5 C 64.6605,23.0715 112.994,41.4049 161.5,59.5C 161.667,70.1719 161.5,80.8385 161,91.5C 158.765,89.7976 156.265,88.7976 153.5,88.5C 146.484,84.5999 139.151,81.2666 131.5,78.5C 124.484,74.5999 117.151,71.2666 109.5,68.5C 106.249,66.0431 102.582,64.3764 98.5,63.5C 95.2488,61.0431 91.5821,59.3764 87.5,58.5C 87.1583,57.6618 86.4916,57.3284 85.5,57.5C 82.9122,55.3754 79.9122,54.0421 76.5,53.5C 76.1583,52.6618 75.4916,52.3284 74.5,52.5C 71.9122,50.3754 68.9122,49.0421 65.5,48.5C 65.1583,47.6618 64.4916,47.3284 63.5,47.5C 58.8461,44.4517 53.8461,42.285 48.5,41C 50.4412,43.4536 52.7746,45.287 55.5,46.5C 57.5691,49.5725 60.2358,51.9059 63.5,53.5C 65.5691,56.5725 68.2358,58.9059 71.5,60.5C 73.5691,63.5725 76.2358,65.9059 79.5,67.5C 79.8333,68.5 80.5,69.1667 81.5,69.5C 83.2393,72.2427 85.5726,74.2427 88.5,75.5C 90.5691,78.5725 93.2358,80.9059 96.5,82.5C 98.5691,85.5725 101.236,87.9059 104.5,89.5C 106.569,92.5725 109.236,94.9059 112.5,96.5C 112.833,97.5 113.5,98.1667 114.5,98.5C 116.239,101.243 118.573,103.243 121.5,104.5C 123.569,107.573 126.236,109.906 129.5,111.5C 131.569,114.573 134.236,116.906 137.5,118.5C 139.569,121.573 142.236,123.906 145.5,125.5C 147.569,128.573 150.236,130.906 153.5,132.5C 153.833,133.5 154.5,134.167 155.5,134.5C 156.412,135.738 156.579,137.072 156,138.5C 152.55,147.101 147.717,154.767 141.5,161.5C 140.311,162.429 138.978,162.762 137.5,162.5C 134.899,158.229 131.566,154.563 127.5,151.5C 127.167,149.167 125.833,147.833 123.5,147.5C 120.899,143.229 117.566,139.563 113.5,136.5C 112.5,134.833 111.167,133.5 109.5,132.5C 106.23,127.56 102.23,123.227 97.5,119.5C 97.1667,118.5 96.5,117.833 95.5,117.5C 92.2297,112.56 88.2297,108.227 83.5,104.5C 83.1667,103.5 82.5,102.833 81.5,102.5C 78.5643,97.8947 74.8976,93.8947 70.5,90.5C 70.1667,88.1667 68.8333,86.8333 66.5,86.5C 63.8991,82.2294 60.5658,78.5628 56.5,75.5C 55.5,73.8333 54.1667,72.5 52.5,71.5C 47.9167,65.5761 42.9167,59.9094 37.5,54.5C 37.1667,54.8333 36.8333,55.1667 36.5,55.5C 39.354,61.8847 42.6873,67.8847 46.5,73.5C 48.9922,79.8177 51.9922,85.8177 55.5,91.5C 60.7378,103.644 66.7378,115.311 73.5,126.5C 75.6588,132.151 78.3255,137.484 81.5,142.5C 86.7378,154.644 92.7378,166.311 99.5,177.5C 99.9925,179.819 100.992,181.819 102.5,183.5C 102.38,184.586 101.713,185.253 100.5,185.5C 90.5752,187.377 80.5752,187.877 70.5,187C 67.9115,181.04 65.2448,175.206 62.5,169.5C 62.5979,167.447 61.9313,165.78 60.5,164.5C 55.6296,149.773 49.963,135.44 43.5,121.5C 43.5979,119.447 42.9313,117.78 41.5,116.5C 37.2661,103.453 32.2661,90.7859 26.5,78.5C 26.5979,76.4471 25.9313,74.7804 24.5,73.5C 24.5979,71.4471 23.9313,69.7804 22.5,68.5C 18.9631,57.1073 14.6297,46.1073 9.5,35.5C 9.59794,33.4471 8.93127,31.7804 7.5,30.5C 3.97763,21.875 2.6443,12.875 3.5,3.5C 7.88138,3.37176 12.2147,3.70509 16.5,4.5 Z"/></g>
<g><path style="opacity:1" fill="#301b17" d="M 161.5,3.5 C 162.825,22.0689 162.825,40.7355 161.5,59.5C 112.994,41.4049 64.6605,23.0715 16.5,4.5C 16.3893,3.88258 16.056,3.38258 15.5,3C 64.3351,2.16838 113.002,2.33505 161.5,3.5 Z"/></g>
<g><path style="opacity:1" fill="#d73023" d="M 161.5,3.5 C 161.5,21.5 161.5,39.5 161.5,57.5C 113.42,39.9721 65.4196,22.1388 17.5,4C 65.4988,3.50001 113.499,3.33334 161.5,3.5 Z"/></g>
<g><path style="opacity:1" fill="#d63023" d="M 7.5,30.5 C 7.40206,32.5529 8.06873,34.2196 9.5,35.5C 13.0369,46.8927 17.3703,57.8927 22.5,68.5C 22.4021,70.5529 23.0687,72.2196 24.5,73.5C 24.4021,75.5529 25.0687,77.2196 26.5,78.5C 30.7339,91.5474 35.7339,104.214 41.5,116.5C 41.4021,118.553 42.0687,120.22 43.5,121.5C 48.3704,136.227 54.037,150.56 60.5,164.5C 60.4021,166.553 61.0687,168.22 62.5,169.5C 64.0022,175.173 66.0022,180.673 68.5,186C 41.2141,181.069 21.7141,165.902 10,140.5C 7.05805,132.732 5.05805,124.732 4,116.5C 3.33333,85.5 3.33333,54.5 4,23.5C 4.67014,26.1739 5.83681,28.5073 7.5,30.5 Z"/></g>
<g><path style="opacity:1" fill="#221c1a" d="M 7.5,30.5 C 8.93127,31.7804 9.59794,33.4471 9.5,35.5C 8.06873,34.2196 7.40206,32.5529 7.5,30.5 Z"/></g>
<g><path style="opacity:1" fill="#2e201c" d="M 9.5,35.5 C 14.6297,46.1073 18.9631,57.1073 22.5,68.5C 17.3703,57.8927 13.0369,46.8927 9.5,35.5 Z"/></g>
<g><path style="opacity:1" fill="#271e1b" d="M 63.5,47.5 C 60.646,47.0761 57.9793,46.0761 55.5,44.5C 54.537,44.9698 54.537,45.6365 55.5,46.5C 52.7746,45.287 50.4412,43.4536 48.5,41C 53.8461,42.285 58.8461,44.4517 63.5,47.5 Z"/></g>
<g><path style="opacity:1" fill="#d53023" d="M 63.5,47.5 C 64.4916,47.3284 65.1583,47.6618 65.5,48.5C 68.0878,50.6246 71.0878,51.9579 74.5,52.5C 75.4916,52.3284 76.1583,52.6618 76.5,53.5C 79.0878,55.6246 82.0878,56.9579 85.5,57.5C 86.4916,57.3284 87.1583,57.6618 87.5,58.5C 90.7512,60.9569 94.4179,62.6236 98.5,63.5C 101.751,65.9569 105.418,67.6236 109.5,68.5C 116.347,72.7876 123.68,76.1209 131.5,78.5C 138.347,82.7876 145.68,86.1209 153.5,88.5C 155.608,90.0591 157.941,91.3924 160.5,92.5C 162.301,106.012 161.468,119.346 158,132.5C 157.583,133.756 156.75,134.423 155.5,134.5C 154.5,134.167 153.833,133.5 153.5,132.5C 151.431,129.427 148.764,127.094 145.5,125.5C 143.431,122.427 140.764,120.094 137.5,118.5C 135.431,115.427 132.764,113.094 129.5,111.5C 127.431,108.427 124.764,106.094 121.5,104.5C 119.761,101.757 117.427,99.7573 114.5,98.5C 113.5,98.1667 112.833,97.5 112.5,96.5C 110.431,93.4275 107.764,91.0941 104.5,89.5C 102.431,86.4275 99.7642,84.0941 96.5,82.5C 94.4309,79.4275 91.7642,77.0941 88.5,75.5C 86.7607,72.7573 84.4274,70.7573 81.5,69.5C 80.5,69.1667 79.8333,68.5 79.5,67.5C 77.4309,64.4275 74.7642,62.0941 71.5,60.5C 69.4309,57.4275 66.7642,55.0941 63.5,53.5C 61.4309,50.4275 58.7642,48.0941 55.5,46.5C 54.537,45.6365 54.537,44.9698 55.5,44.5C 57.9793,46.0761 60.646,47.0761 63.5,47.5 Z"/></g>
<g><path style="opacity:1" fill="#38241f" d="M 55.5,46.5 C 58.7642,48.0941 61.4309,50.4275 63.5,53.5C 60.2358,51.9059 57.5691,49.5725 55.5,46.5 Z"/></g>
<g><path style="opacity:1" fill="#2e211e" d="M 65.5,48.5 C 68.9122,49.0421 71.9122,50.3754 74.5,52.5C 71.0878,51.9579 68.0878,50.6246 65.5,48.5 Z"/></g>
<g><path style="opacity:1" fill="#2d201d" d="M 76.5,53.5 C 79.9122,54.0421 82.9122,55.3754 85.5,57.5C 82.0878,56.9579 79.0878,55.6246 76.5,53.5 Z"/></g>
<g><path style="opacity:1" fill="#38201b" d="M 63.5,53.5 C 66.7642,55.0941 69.4309,57.4275 71.5,60.5C 68.2358,58.9059 65.5691,56.5725 63.5,53.5 Z"/></g>
<g><path style="opacity:1" fill="#33231f" d="M 52.5,71.5 C 48.8691,68.3707 45.3691,65.0374 42,61.5C 43.1657,65.5209 44.6657,69.5209 46.5,73.5C 42.6873,67.8847 39.354,61.8847 36.5,55.5C 36.8333,55.1667 37.1667,54.8333 37.5,54.5C 42.9167,59.9094 47.9167,65.5761 52.5,71.5 Z"/></g>
<g><path style="opacity:1" fill="#2b1e1b" d="M 87.5,58.5 C 91.5821,59.3764 95.2488,61.0431 98.5,63.5C 94.4179,62.6236 90.7512,60.9569 87.5,58.5 Z"/></g>
<g><path style="opacity:1" fill="#d23023" d="M 52.5,71.5 C 54.1667,72.5 55.5,73.8333 56.5,75.5C 59.1009,79.7706 62.4342,83.4372 66.5,86.5C 67.5,88.1667 68.8333,89.5 70.5,90.5C 73.4357,95.1053 77.1024,99.1053 81.5,102.5C 82.5,102.833 83.1667,103.5 83.5,104.5C 86.7703,109.44 90.7703,113.773 95.5,117.5C 96.5,117.833 97.1667,118.5 97.5,119.5C 100.77,124.44 104.77,128.773 109.5,132.5C 111.167,133.5 112.5,134.833 113.5,136.5C 116.101,140.771 119.434,144.437 123.5,147.5C 124.5,149.167 125.833,150.5 127.5,151.5C 130.101,155.771 133.434,159.437 137.5,162.5C 138.303,163.423 138.47,164.423 138,165.5C 128.553,174.394 117.553,180.728 105,184.5C 104.098,184.257 103.265,183.923 102.5,183.5C 100.992,181.819 99.9925,179.819 99.5,177.5C 94.2622,165.356 88.2622,153.689 81.5,142.5C 78.3255,137.484 75.6588,132.151 73.5,126.5C 68.2622,114.356 62.2622,102.689 55.5,91.5C 51.9922,85.8177 48.9922,79.8177 46.5,73.5C 44.6657,69.5209 43.1657,65.5209 42,61.5C 45.3691,65.0374 48.8691,68.3707 52.5,71.5 Z"/></g>
<g><path style="opacity:1" fill="#35201b" d="M 71.5,60.5 C 74.7642,62.0941 77.4309,64.4275 79.5,67.5C 76.2358,65.9059 73.5691,63.5725 71.5,60.5 Z"/></g>
<g><path style="opacity:1" fill="#2b1e1b" d="M 98.5,63.5 C 102.582,64.3764 106.249,66.0431 109.5,68.5C 105.418,67.6236 101.751,65.9569 98.5,63.5 Z"/></g>
<g><path style="opacity:1" fill="#2d221f" d="M 22.5,68.5 C 23.9313,69.7804 24.5979,71.4471 24.5,73.5C 23.0687,72.2196 22.4021,70.5529 22.5,68.5 Z"/></g>
<g><path style="opacity:1" fill="#34231f" d="M 81.5,69.5 C 84.4274,70.7573 86.7607,72.7573 88.5,75.5C 85.5726,74.2427 83.2393,72.2427 81.5,69.5 Z"/></g>
<g><path style="opacity:1" fill="#2f1e1b" d="M 109.5,68.5 C 117.151,71.2666 124.484,74.5999 131.5,78.5C 123.68,76.1209 116.347,72.7876 109.5,68.5 Z"/></g>
<g><path style="opacity:1" fill="#1d1816" d="M 24.5,73.5 C 25.9313,74.7804 26.5979,76.4471 26.5,78.5C 25.0687,77.2196 24.4021,75.5529 24.5,73.5 Z"/></g>
<g><path style="opacity:1" fill="#38231f" d="M 88.5,75.5 C 91.7642,77.0941 94.4309,79.4275 96.5,82.5C 93.2358,80.9059 90.5691,78.5725 88.5,75.5 Z"/></g>
<g><path style="opacity:1" fill="#342320" d="M 56.5,75.5 C 60.5658,78.5628 63.8991,82.2294 66.5,86.5C 62.4342,83.4372 59.1009,79.7706 56.5,75.5 Z"/></g>
<g><path style="opacity:1" fill="#2f1f1b" d="M 131.5,78.5 C 139.151,81.2666 146.484,84.5999 153.5,88.5C 145.68,86.1209 138.347,82.7876 131.5,78.5 Z"/></g>
<g><path style="opacity:1" fill="#37211c" d="M 96.5,82.5 C 99.7642,84.0941 102.431,86.4275 104.5,89.5C 101.236,87.9059 98.5691,85.5725 96.5,82.5 Z"/></g>
<g><path style="opacity:1" fill="#4f4d4b" d="M 66.5,86.5 C 68.8333,86.8333 70.1667,88.1667 70.5,90.5C 68.8333,89.5 67.5,88.1667 66.5,86.5 Z"/></g>
<g><path style="opacity:1" fill="#30221f" d="M 55.5,91.5 C 62.2622,102.689 68.2622,114.356 73.5,126.5C 66.7378,115.311 60.7378,103.644 55.5,91.5 Z"/></g>
<g><path style="opacity:1" fill="#38201b" d="M 104.5,89.5 C 107.764,91.0941 110.431,93.4275 112.5,96.5C 109.236,94.9059 106.569,92.5725 104.5,89.5 Z"/></g>
<g><path style="opacity:1" fill="#2e1f1b" d="M 26.5,78.5 C 32.2661,90.7859 37.2661,103.453 41.5,116.5C 35.7339,104.214 30.7339,91.5474 26.5,78.5 Z"/></g>
<g><path style="opacity:1" fill="#332421" d="M 70.5,90.5 C 74.8976,93.8947 78.5643,97.8947 81.5,102.5C 77.1024,99.1053 73.4357,95.1053 70.5,90.5 Z"/></g>
<g><path style="opacity:1" fill="#2d2320" d="M 114.5,98.5 C 117.427,99.7573 119.761,101.757 121.5,104.5C 118.573,103.243 116.239,101.243 114.5,98.5 Z"/></g>
<g><path style="opacity:1" fill="#38241f" d="M 121.5,104.5 C 124.764,106.094 127.431,108.427 129.5,111.5C 126.236,109.906 123.569,107.573 121.5,104.5 Z"/></g>
<g><path style="opacity:1" fill="#37241f" d="M 83.5,104.5 C 88.2297,108.227 92.2297,112.56 95.5,117.5C 90.7703,113.773 86.7703,109.44 83.5,104.5 Z"/></g>
<g><path style="opacity:1" fill="#38231f" d="M 129.5,111.5 C 132.764,113.094 135.431,115.427 137.5,118.5C 134.236,116.906 131.569,114.573 129.5,111.5 Z"/></g>
<g><path style="opacity:1" fill="#1d1816" d="M 41.5,116.5 C 42.9313,117.78 43.5979,119.447 43.5,121.5C 42.0687,120.22 41.4021,118.553 41.5,116.5 Z"/></g>
<g><path style="opacity:1" fill="#fdfdfd" d="M -0.5,117.5 C 6.92504,158.259 30.925,182.925 71.5,191.5C 47.5,191.5 23.5,191.5 -0.5,191.5C -0.5,166.833 -0.5,142.167 -0.5,117.5 Z"/></g>
<g><path style="opacity:1" fill="#37201b" d="M 137.5,118.5 C 140.764,120.094 143.431,122.427 145.5,125.5C 142.236,123.906 139.569,121.573 137.5,118.5 Z"/></g>
<g><path style="opacity:1" fill="#fdfdfd" d="M 165.5,119.5 C 165.5,143.5 165.5,167.5 165.5,191.5C 141.167,191.5 116.833,191.5 92.5,191.5C 132.712,183.621 157.045,159.621 165.5,119.5 Z"/></g>
<g><path style="opacity:1" fill="#36241f" d="M 97.5,119.5 C 102.23,123.227 106.23,127.56 109.5,132.5C 104.77,128.773 100.77,124.44 97.5,119.5 Z"/></g>
<g><path style="opacity:1" fill="#35201b" d="M 145.5,125.5 C 148.764,127.094 151.431,129.427 153.5,132.5C 150.236,130.906 147.569,128.573 145.5,125.5 Z"/></g>
<g><path style="opacity:1" fill="#301f1c" d="M 43.5,121.5 C 49.963,135.44 55.6296,149.773 60.5,164.5C 54.037,150.56 48.3704,136.227 43.5,121.5 Z"/></g>
<g><path style="opacity:1" fill="#322320" d="M 113.5,136.5 C 117.566,139.563 120.899,143.229 123.5,147.5C 119.434,144.437 116.101,140.771 113.5,136.5 Z"/></g>
<g><path style="opacity:1" fill="#30221f" d="M 81.5,142.5 C 88.2622,153.689 94.2622,165.356 99.5,177.5C 92.7378,166.311 86.7378,154.644 81.5,142.5 Z"/></g>
<g><path style="opacity:1" fill="#504e4c" d="M 123.5,147.5 C 125.833,147.833 127.167,149.167 127.5,151.5C 125.833,150.5 124.5,149.167 123.5,147.5 Z"/></g>
<g><path style="opacity:1" fill="#342320" d="M 127.5,151.5 C 131.566,154.563 134.899,158.229 137.5,162.5C 133.434,159.437 130.101,155.771 127.5,151.5 Z"/></g>
<g><path style="opacity:1" fill="#221c1a" d="M 60.5,164.5 C 61.9313,165.78 62.5979,167.447 62.5,169.5C 61.0687,168.22 60.4021,166.553 60.5,164.5 Z"/></g>
</svg>

<svg xmlns="http://www.w3.org/2000/svg" width="166" height="192" style="shape-rendering:geometricPrecision;text-rendering:geometricPrecision;image-rendering:optimizeQuality;fill-rule:evenodd;clip-rule:evenodd"><path style="opacity:1" fill="#0d0908" d="M-.5-.5h166v120c-8.455 40.121-32.788 64.121-73 72h-21c-40.575-8.575-64.575-33.241-72-74V-.5z"/><path style="opacity:1" fill="#fdfdfd" d="M16.5 4.5a14114.797 14114.797 0 0 0 145 55c.167 10.672 0 21.338-.5 32-2.235-1.702-4.735-2.702-7.5-3a150.602 150.602 0 0 0-22-10 150.602 150.602 0 0 0-22-10c-3.251-2.457-6.918-4.124-11-5-3.251-2.457-6.918-4.124-11-5-.342-.838-1.008-1.172-2-1-2.588-2.125-5.588-3.458-9-4-.342-.838-1.008-1.172-2-1-2.588-2.125-5.588-3.458-9-4-.342-.838-1.008-1.172-2-1-4.654-3.048-9.654-5.215-15-6.5 1.941 2.454 4.275 4.287 7 5.5 2.07 3.072 4.736 5.406 8 7 2.07 3.072 4.736 5.406 8 7 2.07 3.072 4.736 5.406 8 7 .333 1 1 1.667 2 2 1.74 2.743 4.073 4.743 7 6 2.07 3.073 4.736 5.406 8 7 2.07 3.073 4.736 5.406 8 7 2.069 3.073 4.736 5.406 8 7 .333 1 1 1.667 2 2 1.739 2.743 4.073 4.743 7 6 2.069 3.073 4.736 5.406 8 7 2.069 3.073 4.736 5.406 8 7 2.069 3.073 4.736 5.406 8 7 2.069 3.073 4.736 5.406 8 7 .333 1 1 1.667 2 2 .912 1.238 1.079 2.572.5 4-3.45 8.601-8.283 16.267-14.5 23-1.189.929-2.522 1.262-4 1-2.601-4.271-5.934-7.937-10-11-.333-2.333-1.667-3.667-4-4-2.601-4.271-5.934-7.937-10-11-1-1.667-2.333-3-4-4-3.27-4.94-7.27-9.273-12-13-.333-1-1-1.667-2-2-3.27-4.94-7.27-9.273-12-13-.333-1-1-1.667-2-2-2.936-4.605-6.602-8.605-11-12-.333-2.333-1.667-3.667-4-4-2.6-4.27-5.934-7.937-10-11-1-1.667-2.333-3-4-4a177.664 177.664 0 0 0-15-17l-1 1c2.854 6.385 6.187 12.385 10 18a113.425 113.425 0 0 0 9 18 288.402 288.402 0 0 0 18 35 89.673 89.673 0 0 0 8 16 288.402 288.402 0 0 0 18 35c.493 2.319 1.492 4.319 3 6-.12 1.086-.787 1.753-2 2a109.56 109.56 0 0 1-30 1.5 498.168 498.168 0 0 0-8-17.5c.098-2.053-.569-3.72-2-5a402.875 402.875 0 0 0-17-43c.098-2.053-.569-3.72-2-5a326.683 326.683 0 0 0-15-38c.098-2.053-.569-3.72-2-5 .098-2.053-.569-3.72-2-5a237.265 237.265 0 0 0-13-33c.098-2.053-.569-3.72-2-5-3.522-8.625-4.856-17.625-4-27a61.25 61.25 0 0 1 13 1z"/><path style="opacity:1" fill="#301b17" d="M161.5 3.5a394.96 394.96 0 0 1 0 56 14114.797 14114.797 0 0 1-145-55c-.11-.617-.444-1.117-1-1.5a3557.14 3557.14 0 0 1 146 .5z"/><path style="opacity:1" fill="#d73023" d="M161.5 3.5v54A12515.428 12515.428 0 0 1 17.5 4c47.999-.5 95.999-.667 144-.5z"/><path style="opacity:1" fill="#d63023" d="M7.5 30.5c-.098 2.053.569 3.72 2 5a237.265 237.265 0 0 0 13 33c-.098 2.053.569 3.72 2 5-.098 2.053.569 3.72 2 5a326.661 326.661 0 0 0 15 38c-.098 2.053.569 3.72 2 5a402.875 402.875 0 0 0 17 43c-.098 2.053.569 3.72 2 5a97.692 97.692 0 0 0 6 16.5c-27.286-4.931-46.786-20.098-58.5-45.5a105.508 105.508 0 0 1-6-24c-.667-31-.667-62 0-93 .67 2.674 1.837 5.007 3.5 7z"/><path style="opacity:1" fill="#221c1a" d="M7.5 30.5c1.431 1.28 2.098 2.947 2 5-1.431-1.28-2.098-2.947-2-5z"/><path style="opacity:1" fill="#2e201c" d="M9.5 35.5a237.265 237.265 0 0 1 13 33 237.265 237.265 0 0 1-13-33z"/><path style="opacity:1" fill="#271e1b" d="M63.5 47.5c-2.854-.424-5.52-1.424-8-3-.963.47-.963 1.136 0 2-2.725-1.213-5.059-3.046-7-5.5 5.346 1.285 10.346 3.452 15 6.5z"/><path style="opacity:1" fill="#d53023" d="M63.5 47.5c.992-.172 1.658.162 2 1 2.588 2.125 5.588 3.458 9 4 .992-.172 1.658.162 2 1 2.588 2.125 5.588 3.458 9 4 .992-.172 1.658.162 2 1 3.251 2.457 6.918 4.124 11 5 3.251 2.457 6.918 4.124 11 5a91.363 91.363 0 0 0 22 10 91.363 91.363 0 0 0 22 10c2.108 1.56 4.441 2.892 7 4 1.801 13.512.968 26.846-2.5 40-.417 1.256-1.25 1.923-2.5 2-1-.333-1.667-1-2-2-2.069-3.073-4.736-5.406-8-7-2.069-3.073-4.736-5.406-8-7-2.069-3.073-4.736-5.406-8-7-2.069-3.073-4.736-5.406-8-7-1.739-2.743-4.073-4.743-7-6-1-.333-1.667-1-2-2-2.069-3.073-4.736-5.406-8-7-2.069-3.073-4.736-5.406-8-7-2.07-3.073-4.736-5.406-8-7-1.74-2.743-4.073-4.743-7-6-1-.333-1.667-1-2-2-2.07-3.073-4.736-5.406-8-7-2.07-3.072-4.736-5.406-8-7-2.07-3.072-4.736-5.406-8-7-.963-.864-.963-1.53 0-2 2.48 1.576 5.146 2.576 8 3z"/><path style="opacity:1" fill="#38241f" d="M55.5 46.5c3.264 1.594 5.93 3.928 8 7-3.264-1.594-5.93-3.928-8-7z"/><path style="opacity:1" fill="#2e211e" d="M65.5 48.5c3.412.542 6.412 1.875 9 4-3.412-.542-6.412-1.875-9-4z"/><path style="opacity:1" fill="#2d201d" d="M76.5 53.5c3.412.542 6.412 1.875 9 4-3.412-.542-6.412-1.875-9-4z"/><path style="opacity:1" fill="#38201b" d="M63.5 53.5c3.264 1.594 5.93 3.928 8 7-3.264-1.594-5.93-3.928-8-7z"/><path style="opacity:1" fill="#33231f" d="M52.5 71.5c-3.63-3.13-7.13-6.463-10.5-10a85.561 85.561 0 0 0 4.5 12c-3.813-5.615-7.146-11.615-10-18l1-1a177.664 177.664 0 0 1 15 17z"/><path style="opacity:1" fill="#2b1e1b" d="M87.5 58.5c4.082.876 7.749 2.543 11 5-4.082-.876-7.749-2.543-11-5z"/><path style="opacity:1" fill="#d23023" d="M52.5 71.5c1.667 1 3 2.333 4 4 2.6 4.27 5.934 7.937 10 11 1 1.667 2.333 3 4 4 2.936 4.605 6.602 8.605 11 12 1 .333 1.667 1 2 2 3.27 4.94 7.27 9.273 12 13 1 .333 1.667 1 2 2 3.27 4.94 7.27 9.273 12 13 1.667 1 3 2.333 4 4 2.601 4.271 5.934 7.937 10 11 1 1.667 2.333 3 4 4 2.601 4.271 5.934 7.937 10 11 .803.923.97 1.923.5 3-9.447 8.894-20.447 15.228-33 19a11.123 11.123 0 0 1-2.5-1c-1.508-1.681-2.507-3.681-3-6a288.402 288.402 0 0 0-18-35 89.673 89.673 0 0 1-8-16 288.402 288.402 0 0 0-18-35 113.425 113.425 0 0 1-9-18 85.561 85.561 0 0 1-4.5-12c3.37 3.537 6.87 6.87 10.5 10z"/><path style="opacity:1" fill="#35201b" d="M71.5 60.5c3.264 1.594 5.93 3.927 8 7-3.264-1.594-5.93-3.928-8-7z"/><path style="opacity:1" fill="#2b1e1b" d="M98.5 63.5c4.082.876 7.749 2.543 11 5-4.082-.876-7.749-2.543-11-5z"/><path style="opacity:1" fill="#2d221f" d="M22.5 68.5c1.431 1.28 2.098 2.947 2 5-1.431-1.28-2.098-2.947-2-5z"/><path style="opacity:1" fill="#34231f" d="M81.5 69.5c2.927 1.257 5.26 3.257 7 6-2.927-1.257-5.26-3.257-7-6z"/><path style="opacity:1" fill="#2f1e1b" d="M109.5 68.5a150.602 150.602 0 0 1 22 10 91.363 91.363 0 0 1-22-10z"/><path style="opacity:1" fill="#1d1816" d="M24.5 73.5c1.431 1.28 2.098 2.947 2 5-1.431-1.28-2.098-2.947-2-5z"/><path style="opacity:1" fill="#38231f" d="M88.5 75.5c3.264 1.594 5.93 3.927 8 7-3.264-1.594-5.93-3.927-8-7z"/><path style="opacity:1" fill="#342320" d="M56.5 75.5c4.066 3.063 7.4 6.73 10 11-4.066-3.063-7.4-6.73-10-11z"/><path style="opacity:1" fill="#2f1f1b" d="M131.5 78.5a150.602 150.602 0 0 1 22 10 91.363 91.363 0 0 1-22-10z"/><path style="opacity:1" fill="#37211c" d="M96.5 82.5c3.264 1.594 5.931 3.927 8 7-3.264-1.594-5.93-3.927-8-7z"/><path style="opacity:1" fill="#4f4d4b" d="M66.5 86.5c2.333.333 3.667 1.667 4 4-1.667-1-3-2.333-4-4z"/><path style="opacity:1" fill="#30221f" d="M55.5 91.5a288.402 288.402 0 0 1 18 35 288.402 288.402 0 0 1-18-35z"/><path style="opacity:1" fill="#38201b" d="M104.5 89.5c3.264 1.594 5.931 3.927 8 7-3.264-1.594-5.931-3.927-8-7z"/><path style="opacity:1" fill="#2e1f1b" d="M26.5 78.5a326.683 326.683 0 0 1 15 38 326.661 326.661 0 0 1-15-38z"/><path style="opacity:1" fill="#332421" d="M70.5 90.5c4.398 3.395 8.064 7.395 11 12-4.398-3.395-8.064-7.395-11-12z"/><path style="opacity:1" fill="#2d2320" d="M114.5 98.5c2.927 1.257 5.261 3.257 7 6-2.927-1.257-5.261-3.257-7-6z"/><path style="opacity:1" fill="#38241f" d="M121.5 104.5c3.264 1.594 5.931 3.927 8 7-3.264-1.594-5.931-3.927-8-7z"/><path style="opacity:1" fill="#37241f" d="M83.5 104.5c4.73 3.727 8.73 8.06 12 13-4.73-3.727-8.73-8.06-12-13z"/><path style="opacity:1" fill="#38231f" d="M129.5 111.5c3.264 1.594 5.931 3.927 8 7-3.264-1.594-5.931-3.927-8-7z"/><path style="opacity:1" fill="#1d1816" d="M41.5 116.5c1.431 1.28 2.098 2.947 2 5-1.431-1.28-2.098-2.947-2-5z"/><path style="opacity:1" fill="#fdfdfd" d="M-.5 117.5c7.425 40.759 31.425 65.425 72 74h-72v-74z"/><path style="opacity:1" fill="#37201b" d="M137.5 118.5c3.264 1.594 5.931 3.927 8 7-3.264-1.594-5.931-3.927-8-7z"/><path style="opacity:1" fill="#fdfdfd" d="M165.5 119.5v72h-73c40.212-7.879 64.545-31.879 73-72z"/><path style="opacity:1" fill="#36241f" d="M97.5 119.5c4.73 3.727 8.73 8.06 12 13-4.73-3.727-8.73-8.06-12-13z"/><path style="opacity:1" fill="#35201b" d="M145.5 125.5c3.264 1.594 5.931 3.927 8 7-3.264-1.594-5.931-3.927-8-7z"/><path style="opacity:1" fill="#301f1c" d="M43.5 121.5a402.875 402.875 0 0 1 17 43 402.875 402.875 0 0 1-17-43z"/><path style="opacity:1" fill="#322320" d="M113.5 136.5c4.066 3.063 7.399 6.729 10 11-4.066-3.063-7.399-6.729-10-11z"/><path style="opacity:1" fill="#30221f" d="M81.5 142.5a288.402 288.402 0 0 1 18 35 288.402 288.402 0 0 1-18-35z"/><path style="opacity:1" fill="#504e4c" d="M123.5 147.5c2.333.333 3.667 1.667 4 4-1.667-1-3-2.333-4-4z"/><path style="opacity:1" fill="#342320" d="M127.5 151.5c4.066 3.063 7.399 6.729 10 11-4.066-3.063-7.399-6.729-10-11z"/><path style="opacity:1" fill="#221c1a" d="M60.5 164.5c1.431 1.28 2.098 2.947 2 5-1.431-1.28-2.098-2.947-2-5z"/></svg>
